src/assets/icons/filters/brand_model.svg

<svg width="48" height="48" viewBox="0 0 48 48" fill="none" xmlns="http://www.w3.org/2000/svg">
<path fill-rule="evenodd" clip-rule="evenodd" d="M24 44.8C35.4688 44.8 44.8 35.4688 44.8 24C44.8 12.5312 35.4688 3.2 24 3.2C12.5312 3.2 3.2 12.5312 3.2 24C3.2 35.4688 12.5312 44.8 24 44.8ZM24 0C37.2336 0 48 10.7664 48 24C48 37.2336 37.2336 48 24 48C10.7664 48 0 37.2336 0 24C0 10.7664 10.7664 0 24 0ZM27.4968 24.2922L29.9912 22.0554L26.6568 21.7098C26.0872 21.6506 25.5928 21.2906 25.3592 20.7658L23.9992 17.7018L22.6408 20.7658C22.4072 21.2906 21.9128 21.6506 21.3432 21.7098L18.0088 22.0554L20.5032 24.2922C20.9304 24.6746 21.1192 25.257 20.9976 25.817L20.2968 29.0954L23.1976 27.4154C23.4456 27.2714 23.724 27.1994 23.9992 27.1994C24.276 27.1994 24.5544 27.2714 24.8008 27.4154L27.7032 29.0954L27.0008 25.817C26.8808 25.257 27.0696 24.6746 27.4968 24.2922ZM33.9096 19.2426C34.5368 19.3082 35.0696 19.737 35.2648 20.3402C35.4616 20.9418 35.2824 21.601 34.812 22.025L30.324 26.0554L31.5864 31.9546C31.7192 32.5738 31.4728 33.2106 30.9624 33.5834C30.6824 33.7866 30.3528 33.889 30.0216 33.889C29.7448 33.889 29.468 33.817 29.22 33.673L23.9992 30.649L18.78 33.673C18.2328 33.9914 17.5512 33.9546 17.0376 33.5834C16.5272 33.2106 16.2808 32.5738 16.4136 31.9546L17.676 26.0554L13.188 22.025C12.7176 21.601 12.5384 20.9418 12.7336 20.3402C12.9304 19.737 13.4632 19.3082 14.0904 19.2426L20.0904 18.6218L22.5368 13.1066C22.7944 12.5274 23.3672 12.1546 23.9992 12.1546C24.6328 12.1546 25.2056 12.5274 25.4632 13.1066L27.9096 18.6218L33.9096 19.2426ZM34.736 35.664C34.88 35.824 34.992 35.984 35.072 36.192C35.152 36.384 35.2 36.592 35.2 36.8C35.2 37.008 35.152 37.216 35.072 37.408C34.992 37.6 34.88 37.7744 34.736 37.936C34.432 38.2384 34.032 38.4 33.6 38.4C33.392 38.4 33.184 38.352 32.992 38.272C32.8 38.192 32.624 38.08 32.464 37.936C32.32 37.7744 32.208 37.6 32.128 37.408C32.048 37.216 32 37.008 32 36.8C32 36.592 32.048 36.384 32.128 36.192C32.208 35.984 32.32 35.824 32.464 35.664C33.056 35.072 34.128 35.072 34.736 35.664ZM40.4 18.064C40.688 18.3664 40.864 18.784 40.864 19.2C40.864 19.6304 40.7024 20.0304 40.4 20.336C40.096 20.6384 39.696 20.8 39.264 20.8C38.832 20.8 38.432 20.6384 38.128 20.336C37.824 20.0304 37.664 19.6304 37.664 19.2C37.664 18.784 37.8384 18.3664 38.128 18.064C38.208 18 38.288 17.92 38.3664 17.872C38.464 17.808 38.56 17.76 38.656 17.728C38.752 17.68 38.848 17.648 38.944 17.6304C39.472 17.52 40.016 17.696 40.4 18.064ZM22.864 9.136C22.72 8.9744 22.608 8.8 22.5104 8.608C22.4304 8.416 22.4 8.208 22.4 8C22.4 7.792 22.4304 7.584 22.528 7.392C22.608 7.184 22.72 7.024 22.864 6.864C23.024 6.72 23.184 6.608 23.392 6.528C23.68 6.4 24 6.368 24.3024 6.432C24.416 6.448 24.5104 6.48 24.608 6.528C24.7024 6.56 24.8 6.608 24.88 6.672C24.9744 6.72 25.056 6.8 25.136 6.864C25.28 7.024 25.392 7.184 25.472 7.392C25.552 7.584 25.6 7.792 25.6 8C25.6 8.208 25.552 8.416 25.472 8.608C25.392 8.8 25.28 8.9744 25.136 9.136C24.9744 9.28 24.8 9.392 24.608 9.472C24.416 9.552 24.208 9.6 24 9.6C23.5664 9.6 23.1664 9.4384 22.864 9.136ZM10.2078 18.5922C10.2558 18.6882 10.2878 18.7842 10.3038 18.8802C10.3198 18.9922 10.3358 19.1026 10.3358 19.2002C10.3358 19.4082 10.3038 19.6162 10.2238 19.8082C10.1278 20.0002 10.0158 20.1746 9.87184 20.3362C9.56784 20.6386 9.16784 20.8002 8.73584 20.8002C8.30384 20.8002 7.90384 20.6386 7.59984 20.3362C7.45584 20.1746 7.34384 20.0002 7.26384 19.8082C7.18384 19.6162 7.13584 19.4082 7.13584 19.2002C7.13584 18.7842 7.31024 18.3666 7.59984 18.0642C8.19184 17.4722 9.26384 17.4722 9.87184 18.0642C9.93584 18.1442 10.0158 18.2242 10.0638 18.3026C10.1278 18.4002 10.1742 18.4946 10.2078 18.5922ZM15.536 35.664C15.68 35.824 15.792 35.984 15.872 36.192C15.952 36.384 16 36.592 16 36.8C16 37.008 15.952 37.216 15.872 37.408C15.792 37.6 15.68 37.7744 15.536 37.936C15.232 38.2384 14.832 38.4 14.4 38.4C13.968 38.4 13.568 38.2384 13.264 37.936C13.12 37.7744 13.008 37.6 12.928 37.408C12.832 37.216 12.8 37.008 12.8 36.8C12.8 36.592 12.832 36.384 12.928 36.192C13.008 35.984 13.12 35.824 13.264 35.664C13.632 35.296 14.192 35.12 14.7024 35.2304C14.816 35.248 14.9104 35.28 15.008 35.328C15.1024 35.36 15.2 35.408 15.28 35.472C15.3744 35.52 15.456 35.6 15.536 35.664Z" fill="black"/>
</svg>

<svg width="48" height="48" viewBox="0 0 48 48" fill="none" xmlns="http://www.w3.org/2000/svg"><path fill-rule="evenodd" clip-rule="evenodd" d="M24 44.8c11.469 0 20.8-9.331 20.8-20.8 0-11.469-9.331-20.8-20.8-20.8C12.531 3.2 3.2 12.531 3.2 24c0 11.469 9.331 20.8 20.8 20.8zM24 0c13.234 0 24 10.766 24 24S37.234 48 24 48 0 37.234 0 24 10.766 0 24 0zm3.497 24.292l2.494-2.237-3.334-.345a1.603 1.603 0 01-1.298-.944L24 17.702l-1.358 3.064a1.603 1.603 0 01-1.298.944l-3.334.345 2.494 2.237c.427.383.616.965.495 1.525l-.701 3.278 2.9-1.68a1.6 1.6 0 011.604 0l2.902 1.68-.702-3.278c-.12-.56.069-1.142.496-1.525zm6.413-5.05a1.6 1.6 0 01.902 2.783l-4.488 4.03 1.262 5.9a1.601 1.601 0 01-2.366 1.718L24 30.649l-5.22 3.024a1.6 1.6 0 01-2.366-1.718l1.262-5.9-4.488-4.03a1.603 1.603 0 01-.454-1.685 1.603 1.603 0 011.356-1.097l6-.621 2.447-5.515a1.601 1.601 0 012.926 0l2.447 5.515 6 .62zm.826 16.422c.144.16.256.32.336.528.08.192.128.4.128.608 0 .208-.048.416-.128.608a1.87 1.87 0 01-.336.528 1.59 1.59 0 01-1.744.336 1.848 1.848 0 01-.528-.336 1.87 1.87 0 01-.336-.528c-.08-.192-.128-.4-.128-.608 0-.208.048-.416.128-.608.08-.208.192-.368.336-.528.592-.592 1.664-.592 2.272 0zm5.664-17.6c.288.302.464.72.464 1.136 0 .43-.162.83-.464 1.136a1.59 1.59 0 01-1.136.464 1.59 1.59 0 01-1.136-.464 1.589 1.589 0 01-.464-1.136c0-.416.174-.834.464-1.136.08-.064.16-.144.238-.192.098-.064.194-.112.29-.144a1.09 1.09 0 01.288-.098 1.634 1.634 0 011.456.434zM22.864 9.136a2.437 2.437 0 01-.354-.528c-.08-.192-.11-.4-.11-.608 0-.208.03-.416.128-.608.08-.208.192-.368.336-.528.16-.144.32-.256.528-.336.288-.128.608-.16.91-.096a.975.975 0 01.306.096c.094.032.192.08.272.144.094.048.176.128.256.192.144.16.256.32.336.528.08.192.128.4.128.608 0 .208-.048.416-.128.608a1.87 1.87 0 01-.336.528 1.87 1.87 0 01-.528.336 1.585 1.585 0 01-1.744-.336zm-12.656 9.456c.048.096.08.192.096.288.016.112.032.223.032.32 0 .208-.032.416-.112.608a2.375 2.375 0 01-.352.528 1.59 1.59 0 01-1.136.464 1.59 1.59 0 01-1.136-.464 1.87 1.87 0 01-.336-.528c-.08-.192-.128-.4-.128-.608 0-.416.174-.833.464-1.136.592-.592 1.664-.592 2.272 0 .064.08.144.16.192.239.064.097.11.192.144.29zm5.328 17.072c.144.16.256.32.336.528.08.192.128.4.128.608 0 .208-.048.416-.128.608a1.87 1.87 0 01-.336.528 1.59 1.59 0 01-1.136.464 1.59 1.59 0 01-1.136-.464 1.87 1.87 0 01-.336-.528 1.342 1.342 0 01-.128-.608c0-.208.032-.416.128-.608.08-.208.192-.368.336-.528a1.6 1.6 0 011.438-.434c.114.018.208.05.306.098.094.032.192.08.272.144.094.048.176.128.256.192z" fill="#000"/></svg>
